X: 22
T: Orphan, The
Z: chansherly212
S: https://thesession.org/tunes/217#setting53982
R: jig
M: 6/8
L: 1/8
K: Emin
|:"Em"~E3EDB,|"Em"GFG AGA|"Em"B2B ABA|"Em"GEF EDB,|
"Am"~A,3 EDB,|"Am"GFG AGA|"C"BdB "D"ABA|1 "Am"GED "Em"EGF:|2"Am"2 GED "Em"E2e||
|:"Em"efe dBA|"G"GAB d2d|"Em"edB AGA|"Em"BAG EDB,|
"Am"~A,3 EDB,|"Am"GFG AGA|"C"BdB "D"ABA|"Am"GED "Em"E3:|

